materials/panorama/images/tournaments/teams/defu.svg

<?xml version="1.0" encoding="UTF-8" standalone="no"?>
<svg
   xmlns:dc="http://purl.org/dc/elements/1.1/"
   xmlns:cc="http://creativecommons.org/ns#"
   xmlns:rdf="http://www.w3.org/1999/02/22-rdf-syntax-ns#"
   xmlns:svg="http://www.w3.org/2000/svg"
   xmlns="http://www.w3.org/2000/svg"
   xmlns:sodipodi="http://sodipodi.sourceforge.net/DTD/sodipodi-0.dtd"
   xmlns:inkscape="http://www.inkscape.org/namespaces/inkscape"
   width="64"
   height="64"
   viewBox="0 0 48.000001 48"
   version="1.1"
   id="svg3741"
   sodipodi:docname="defu.svg"
   inkscape:version="0.92.3 (2405546, 2018-03-11)">
  <metadata
     id="metadata3747">
    <rdf:RDF>
      <cc:Work
         rdf:about="">
        <dc:format>image/svg+xml</dc:format>
        <dc:type
           rdf:resource="http://purl.org/dc/dcmitype/StillImage" />
        <dc:title></dc:title>
      </cc:Work>
    </rdf:RDF>
  </metadata>
  <defs
     id="defs3745" />
  <sodipodi:namedview
     pagecolor="#ffffff"
     bordercolor="#666666"
     borderopacity="1"
     objecttolerance="10"
     gridtolerance="10"
     guidetolerance="10"
     inkscape:pageopacity="0"
     inkscape:pageshadow="2"
     inkscape:window-width="1920"
     inkscape:window-height="1017"
     id="namedview3743"
     showgrid="false"
     units="px"
     inkscape:pagecheckerboard="true"
     inkscape:zoom="0.093691649"
     inkscape:cx="-716.65863"
     inkscape:cy="545.90706"
     inkscape:window-x="-8"
     inkscape:window-y="-8"
     inkscape:window-maximized="1"
     inkscape:current-layer="svg3741" />
  <g
     id="#2f90ffff"
     transform="matrix(0.08,0,0,0.08,2.1418225,2.5e-7)">
    <path
       d="m 243.38,0 h 57.22 c 2.85,1 5.81,2.31 7.63,4.85 2,2.57 2.46,5.91 2.52,9.07 -0.06,36.7 -0.08,73.4 0.02,110.1 -0.07,3.24 -0.34,6.71 -2.28,9.44 -2.46,3.7 -7,5.78 -11.42,5.34 -4.35,-0.27 -7.72,-3.35 -10.97,-5.92 -12.54,-10.3 -26.29,-19.11 -40.97,-26.03 -3.22,-1.61 -6.75,-3 -9.11,-5.84 -2.29,-2.79 -2.57,-6.56 -2.65,-10.01 0.06,-25.01 0.1,-50.02 -0.02,-75.03 0.06,-3.55 0.16,-7.36 2.18,-10.44 1.75,-2.82 4.86,-4.34 7.85,-5.53 z"
       id="path3731"
       inkscape:connector-curvature="0"
       style="opacity:1;fill:#2f90ff" />
    <path
       d="m 450.3,125.3 c 2.2,-0.36 4.44,-0.34 6.67,-0.35 12.68,0.1 25.35,0.03 38.03,0.05 4.31,0.04 8.65,-0.3 12.94,0.24 5,0.7 8.8,5.3 9.53,10.14 0.5,3.85 0.24,7.75 0.25,11.62 -0.14,8.71 0.28,17.42 -0.31,26.11 -1.04,13.78 -3.54,27.49 -7.82,40.64 -11.03,34.68 -33.87,65.37 -63.57,86.33 -3.21,2.34 -7,4.36 -8.85,8.05 -2.17,4.46 -0.95,9.87 2.13,13.59 34.8,44.51 69.57,89.06 104.37,133.57 4.15,5.19 3.67,13.56 -1.5,17.89 -2.39,2.38 -5.87,2.88 -9.09,2.85 -18.69,-0.05 -37.39,-0.04 -56.08,-0.02 -3.98,-0.03 -7.99,0.26 -11.95,-0.24 -3.5,-0.41 -5.96,-3.21 -8.09,-5.75 -30.71,-39.3 -61.42,-78.62 -92.13,-117.92 -3.21,-3.64 -2.79,-8.69 -1.86,-13.09 3.62,-18.45 4.16,-37.39 2.86,-56.1 -0.31,-6.39 -1.79,-12.63 -2.3,-18.99 -0.16,-3.13 0.48,-6.44 2.47,-8.93 2.1,-2.9 5.62,-4.12 8.9,-5.14 27.2,-8.03 49.99,-29.48 59.79,-56.07 4.86,-12.29 6.08,-25.67 5.74,-38.78 0.09,-6.2 -0.29,-12.42 0.13,-18.61 0.34,-5.29 4.43,-10.24 9.74,-11.09 z"
       id="path3733"
       inkscape:connector-curvature="0"
       style="opacity:1;fill:#2f90ff" />
    <path
       d="m 286.71,466.67 c 3.05,-2.42 6.27,-5.23 10.36,-5.48 4.64,-0.44 9.41,1.92 11.82,5.92 1.62,2.65 1.8,5.85 1.87,8.87 -0.08,36.36 -0.09,72.73 0.01,109.09 -0.05,3.47 -0.38,7.19 -2.54,10.07 -1.8,2.56 -4.78,3.86 -7.64,4.86 h -57.21 c -2.77,-1.12 -5.65,-2.45 -7.45,-4.94 -2.18,-2.86 -2.49,-6.6 -2.56,-10.07 0.08,-25.33 0.08,-50.66 0,-75.99 0.06,-3.67 0.44,-7.75 3.11,-10.54 3.14,-3.18 7.49,-4.62 11.38,-6.62 13.82,-6.92 26.91,-15.34 38.85,-25.17 z"
       id="path3735"
       inkscape:connector-curvature="0"
       style="opacity:1;fill:#2f90ff" />
  </g>
  <g
     id="#ffffffff"
     transform="matrix(0.08,0,0,0.08,2.1418225,2.5e-7)">
    <path
       d="m 5.14,127.18 c 3.93,-3.07 9.23,-2.07 13.86,-2.23 48.02,0.14 96.04,-0.02 144.06,0.07 42.37,2.51 83.6,21.27 113.2,51.73 13.25,12.87 23.81,28.28 32.3,44.63 13.33,26.73 19.61,56.85 18.42,86.68 -1.38,28.41 -9.17,56.7 -23.78,81.19 -7.49,13 -16.68,25.05 -27.44,35.5 -27.41,27.99 -64.67,45.96 -103.56,50.44 -8.35,1.23 -16.8,0.74 -25.2,0.81 -42.67,0.04 -85.33,-0.07 -128,0.05 -4.63,-0.16 -9.93,0.84 -13.86,-2.23 C 2.07,471.69 0.77,468 0,464.52 V 136.48 c 0.78,-3.49 2.07,-7.17 5.14,-9.3 m 83.18,75.06 c -5.3,-0.04 -10.5,4.2 -10.32,9.73 0,59.02 0,118.04 0,177.06 -0.13,3.65 2.27,6.96 5.4,8.64 3.01,1.25 6.34,1.38 9.56,1.37 16.68,-0.08 33.37,-0.04 50.05,-0.02 6.02,0.04 12,-0.79 18.01,-1.02 16.18,-1.53 31.98,-7.28 45.27,-16.66 7.74,-5.09 14.29,-11.74 20.46,-18.6 13.69,-16.71 22.14,-38.02 22.29,-59.72 1.01,-25.92 -9.29,-52.11 -27.61,-70.45 -13.76,-14.5 -32.11,-24.71 -51.81,-28.33 -7.42,-1.61 -15.06,-1.49 -22.59,-2.18 -15.67,-0.16 -31.35,0.01 -47.03,-0.07 -3.89,0.03 -7.8,-0.19 -11.68,0.25 z"
       id="path3738"
       inkscape:connector-curvature="0"
       style="opacity:1;fill:#ffffff" />
  </g>
</svg>

<?xml version="1.0" encoding="UTF-8" ?>
<!DOCTYPE svg PUBLIC "-//W3C//DTD SVG 1.1//EN" "http://www.w3.org/Graphics/SVG/1.1/DTD/svg11.dtd">
<svg width="64" height="64" viewBox="0 0 547 600" version="1.1" xmlns="http://www.w3.org/2000/svg">
<g id="#2f90ffff">
<path fill="#2f90ff" opacity="1.00" d=" M 243.38 0.00 L 300.60 0.00 C 303.45 1.00 306.41 2.31 308.23 4.85 C 310.23 7.42 310.69 10.76 310.75 13.92 C 310.69 50.62 310.67 87.32 310.77 124.02 C 310.70 127.26 310.43 130.73 308.49 133.46 C 306.03 137.16 301.49 139.24 297.07 138.80 C 292.72 138.53 289.35 135.45 286.10 132.88 C 273.56 122.58 259.81 113.77 245.13 106.85 C 241.91 105.24 238.38 103.85 236.02 101.01 C 233.73 98.22 233.45 94.45 233.37 91.00 C 233.43 65.99 233.47 40.98 233.35 15.97 C 233.41 12.42 233.51 8.61 235.53 5.53 C 237.28 2.71 240.39 1.19 243.38 0.00 Z" />
<path fill="#2f90ff" opacity="1.00" d=" M 450.30 125.30 C 452.50 124.94 454.74 124.96 456.97 124.95 C 469.65 125.05 482.32 124.98 495.00 125.00 C 499.31 125.04 503.65 124.70 507.94 125.24 C 512.94 125.94 516.74 130.54 517.47 135.38 C 517.97 139.23 517.71 143.13 517.72 147.00 C 517.58 155.71 518.00 164.42 517.41 173.11 C 516.37 186.89 513.87 200.60 509.59 213.75 C 498.56 248.43 475.72 279.12 446.02 300.08 C 442.81 302.42 439.02 304.44 437.17 308.13 C 435.00 312.59 436.22 318.00 439.30 321.72 C 474.10 366.23 508.87 410.78 543.67 455.29 C 547.82 460.48 547.34 468.85 542.17 473.18 C 539.78 475.56 536.30 476.06 533.08 476.03 C 514.39 475.98 495.69 475.99 477.00 476.01 C 473.02 475.98 469.01 476.27 465.05 475.77 C 461.55 475.36 459.09 472.56 456.96 470.02 C 426.25 430.72 395.54 391.40 364.83 352.10 C 361.62 348.46 362.04 343.41 362.97 339.01 C 366.59 320.56 367.13 301.62 365.83 282.91 C 365.52 276.52 364.04 270.28 363.53 263.92 C 363.37 260.79 364.01 257.48 366.00 254.99 C 368.10 252.09 371.62 250.87 374.90 249.85 C 402.10 241.82 424.89 220.37 434.69 193.78 C 439.55 181.49 440.77 168.11 440.43 155.00 C 440.52 148.80 440.14 142.58 440.56 136.39 C 440.90 131.10 444.99 126.15 450.30 125.30 Z" />
<path fill="#2f90ff" opacity="1.00" d=" M 286.71 466.67 C 289.76 464.25 292.98 461.44 297.07 461.19 C 301.71 460.75 306.48 463.11 308.89 467.11 C 310.51 469.76 310.69 472.96 310.76 475.98 C 310.68 512.34 310.67 548.71 310.77 585.07 C 310.72 588.54 310.39 592.26 308.23 595.14 C 306.43 597.70 303.45 599.00 300.59 600.00 L 243.38 600.00 C 240.61 598.88 237.73 597.55 235.93 595.06 C 233.75 592.20 233.44 588.46 233.37 584.99 C 233.45 559.66 233.45 534.33 233.37 509.00 C 233.43 505.33 233.81 501.25 236.48 498.46 C 239.62 495.28 243.97 493.84 247.86 491.84 C 261.68 484.92 274.77 476.50 286.71 466.67 Z" />
</g>
<g id="#ffffffff">
<path fill="#ffffff" opacity="1.00" d=" M 5.14 127.18 C 9.07 124.11 14.37 125.11 19.00 124.95 C 67.02 125.09 115.04 124.93 163.06 125.02 C 205.43 127.53 246.66 146.29 276.26 176.75 C 289.51 189.62 300.07 205.03 308.56 221.38 C 321.89 248.11 328.17 278.23 326.98 308.06 C 325.60 336.47 317.81 364.76 303.20 389.25 C 295.71 402.25 286.52 414.30 275.76 424.75 C 248.35 452.74 211.09 470.71 172.20 475.19 C 163.85 476.42 155.40 475.93 147.00 476.00 C 104.33 476.04 61.67 475.93 19.00 476.05 C 14.37 475.89 9.07 476.89 5.14 473.82 C 2.07 471.69 0.77 468.00 0.00 464.52 L 0.00 136.48 C 0.78 132.99 2.07 129.31 5.14 127.18 M 88.32 202.24 C 83.02 202.20 77.82 206.44 78.00 211.97 C 78.00 270.99 78.00 330.01 78.00 389.03 C 77.87 392.68 80.27 395.99 83.40 397.67 C 86.41 398.92 89.74 399.05 92.96 399.04 C 109.64 398.96 126.33 399.00 143.01 399.02 C 149.03 399.06 155.01 398.23 161.02 398.00 C 177.20 396.47 193.00 390.72 206.29 381.34 C 214.03 376.25 220.58 369.60 226.75 362.74 C 240.44 346.03 248.89 324.72 249.04 303.02 C 250.05 277.10 239.75 250.91 221.43 232.57 C 207.67 218.07 189.32 207.86 169.62 204.24 C 162.20 202.63 154.56 202.75 147.03 202.06 C 131.36 201.90 115.68 202.07 100.00 201.99 C 96.11 202.02 92.20 201.80 88.32 202.24 Z" />
</g>
</svg>
